X:1
T:Donne mie care chi non sa ch'Amore
T:Lodovico Agostini
T:Donne mie care chi non sa ch'Amore
C:Lodovico Agostini
%%score [ 1 2 3 4 ]
L:1/8
Q:1/4=120
M:4/2
K:F
V:1 treble nm="Soprano" snm="S"
V:2 alto2 nm="Alto" snm="A"
V:3 alto nm="Tenor" snm="T"
V:4 bass3 nm="Bass" snm="B"
V:1
 z16 |[K:Eb] B8 A4 G4 | G8 G4 =A2 B2 | c6 d2 e8 | d4 c4 =B6 B2 | =B4 c4 c4 c4 | c8 B4 A4- | %7
w: |Don- ne mie|ca- re chi non|sa ch'A- mo-|re, Per am- pia|ve- na vi tra-|boc- chi a- ma-|
 A4 G4 z4 G4 | G4 A4 B8 | B4 c8 c4 | F4 G4 =A8 | B4 z2 B2 B4 A4 | G4 B4 A4 G4- | G2 G2 E4 A8 | %14
w: * ro, Ri-|guar- di'l suon|sol de la|vo- ce A- mo-|re, Che'n sua ra-|gion non tien al-|* tro ch'a- ma-|
 A8 z4 G4 | B4 B4 =A6 A2 | B4 B4 A4 G4 | F8 F4 z2 G2- | G2 G2 G4 G4 =A4 | B6 B2 B4 A4 | B8 c8 | %21
w: ro, Et|a chi ser- ve in-|tie- ra- men- te A-|mo- re, Co-|* me dia di buon|se- me il frut- to a-|ma- ro,|
 z2 B4 B2 B4 B2 B2 | c3 c c2 c2 A8 | G8 z4 G4 | =A6 A2 =B4 B4 | c8 c4 c4- | c2 B2 A4 G4 B4- | %27
w: E s'in qual- che dol-|cez- za l'al- ma in- va-|ga, D'un|po- co dol- ce|mol- to a- ma-|* * * ro ap- pa-|
 B2 =AG A4 B8 | z4 G4 =A6 A2 | =B4 B4 c8 | c4 c6 B2 A4 | G4 B6 =AG A4 | B16 |] %33
w: * * * * ga,|D'un po- co|dol- ce mol-|to a- ma- * *|ro ap- pa- * * *|ga.|
V:2
 z16 |[K:Eb][K:treble] F8 F4 D4 | E8 D4 F2 F2 | A4 =A4 B8 | B4 G4 G6 G2 | G4 G4 A4 A4 | A6 G2 F8 | %7
w: |Don- ne mie|ca- re chi non|sa ch'A- mo-|re, Per am- pia|ve- na vi tra-|boc- chi a- ma-|
 E8 z4 E4 | D4 F4 G8 | F4 A8 G4 | B4 B,4 C8 | D4 z2 F2 G4 F4 | D4 G4 F4 =E4- | E2 =E2 G4 F8 | %14
w: ro, Ri-|guar- di'l suon|sol de la|vo- ce A- mo-|re, Che'n sua ra-|gion non tien al-|* tro ch'a- ma-|
 E8 z4 E4 | G4 F4 F6 F2 | D4 D2 E4 E2 E3 D | C3 B, C4 D4 z2 E2- | E2 E2 E4 =E4 F4 | F6 F2 F4 F4 | %20
w: ro, Et|a chi ser- ve in-|tie- ra- men- te A- mo- *|* * * re, Co-|* me dia di buon|se- me il frut- to a-|
 G2 A4 G2 A8 | z2 F4 F2 G4 G2 F2 | A3 A A2 G2 F8 | =E8 z4 C4 | C6 C2 G8 | E4 A4 A4 A4- | %26
w: ma- * * ro,|E s'in qual- che dol-|cez- za l'al- ma in- va-|ga, D'un|po- co dol-|ce mol- to a- ma-|
 A2 G2 F8 E4 | F8 F8 | z4 C4 C6 C2 | G8 E4 A4 | A4 A6 G2 F4- | F4 E4 F8 | F16 |] %33
w: * * * ro ap-|pa- ga,|D'un po- co|dol- ce mol-|to a- ma- * *|* ro ap- pa-|ga.|
V:3
 z16 |[K:Eb][K:treble-8] _d8 c4 =B4 | c8 B4 c2 d2 | e4 f4 g8 | f4 e4 d6 d2 | d4 =e4 f4 f4 | %6
w: |Don- ne mie|ca- re chi non|sa ch'A- mo-|re, Per am- pia|ve- na vi tra-|
 f4 e4 _d6 c2 | B8 A4 z2 c2 | =B4 c4 e8 | d4 f8 e4 | d6 e2 f8 | f4 z2 d2 e4 c4 | B4 e4 c4 c4- | %13
w: boc- chi a- ma- *|* ro, Ri-|guar- di'l suon|sol de la|vo- ce A- mo-|re, Che'n sua ra-|gion non tien al-|
 c4 c4 A4 _d4- | d4 c4 z4 B4 | e4 _d4 c6 c2 | B4 B4 c4 B2 B2- | B2 =AG A4 B4 z2 B2- | %18
w: * tro ch'a- ma-|* ro, Et|a chi ser- ve in-|tie- ra- men- te A- mo-|* * * * re, Co-|
 B2 B2 B4 c4 F4 | d6 d2 d4 c4 | e8 e8 | z2 d4 d2 e4 e2 d2 | f3 f f2 c2 c8 | c8 z4 =e4 | f6 f2 d8 | %25
w: * me dia di buon|se- me il frut- to a-|ma- ro,|E s'in qual- che dol-|cez- za l'al- ma in- va-|ga, D'un|po- co dol-|
 c4 e8 e4 | e4 c4 B8 | c8 d8 | z4 =e4 f6 f2 | d8 c4 e4- | e4 e4 e4 c4 | B8 c8 | B16 |] %33
w: ce mol- to a-|ma- ro ap- pa-|* ga,|D'un po- co|dol- ce mol-|* to a- ma- ro ap-|pa- *|ga.|
V:4
 z16 |[K:Eb][K:bass] B,8 F,4 G,4 | C,8 G,4 F,2 B,2 | A,4 F,4 E,8 | B,,4 C,4 G,6 G,2 | %5
w: |Don- ne mie|ca- re chi non|sa ch'A- mo-|re, Per am- pia|
 G,4 C,4 F,4 F,4 | F,4 C,4 _D,8 | E,8 z4 C,4 | G,4 F,4 E,8 | B,4 F,8 C4 | B,4 G,4 F,8 | %11
w: ve- na vi tra-|boc- chi a- ma-|ro, Ri-|guar- di'l suon|sol de la|vo- ce A- mo-|
 B,,4 z2 B,2 E,4 F,4 | G,4 E,4 F,4 C,4- | C,2 C,2 C,4 _D,8 | A,,8 z4 E,4 | E,4 B,4 F,6 F,2 | %16
w: re, Che'n sua ra-|gion non tien al-|* tro ch'a- ma-|ro, Et|a chi ser- ve in-|
 G,4 G,4 A,4 E,4 | F,8 B,,4 z2 E,2- | E,2 E,2 E,4 C,4 C4 | B,6 B,2 B,4 F,4 | E,8 A,8 | %21
w: tie- ra- men- te A-|mo- re, Co-|* me dia di buon|se- me il frut- to a-|ma- ro,|
 z2 B,4 B,2 E,4 E,2 B,,2 | F,3 F, F,2 =E,2 F,8 | C,8 z4 C,4 | F,6 F,2 G,4 G,4 | A,12 A,4 | %26
w: E s'in qual- che dol-|cez- za l'al- ma in- va-|ga, D'un|po- co dol- ce|mol- to a-|
 E,4 F,4 G,8 | F,8 B,,8 | z4 C,4 F,6 F,2 | G,4 G,4 A,8- | A,4 A,4 E,4 F,4 | G,8 F,8 | B,,16 |] %33
w: ma- ro ap- pa-|* ga,|D'un po- co|dol- ce mol-|* to a- ma- ro ap-|pa- *|ga.|

